svg/u1f92e.svg

<svg viewBox="0 0 128 128" xmlns="http://www.w3.org/2000/svg">
  <defs>
    <radialGradient id="face_1_" cx="63.6" cy="62.8999" gradientUnits="userSpaceOnUse" r="56.9597">
      <stop offset="0.5" stop-color="#FDE030"/>
      <stop offset="0.92" stop-color="#F7C02B"/>
      <stop offset="1" stop-color="#F4A223"/>
    </radialGradient>
    <linearGradient id="SVGID_3_" gradientTransform="matrix(1 0 0 -1 0 0)" gradientUnits="userSpaceOnUse" x1="64.9403" x2="64.9403" y1="-81.36" y2="-125.46">
      <stop offset="0" stop-color="#469643"/>
      <stop offset="0.02" stop-color="#489743"/>
      <stop offset="0.44" stop-color="#6DB141"/>
      <stop offset="0.78" stop-color="#84C03F"/>
      <stop offset="1" stop-color="#8CC63F"/>
    </linearGradient>
  </defs>
  <path id="face" d="M63.6,118.8 C35.7,118.8 5.6,101.3 5.6,62.9 C5.6,24.5 35.7,7 63.6,7 C79.1,7 93.4,12.1 104,21.4 C115.5,31.6 121.6,46 121.6,62.9 C121.6,79.8 115.5,94.1 104,104.3 C93.4,113.6 79,118.8 63.6,118.8 Z" fill="url(#face_1_)"/>
  <path d="M111.49,29.67 C116.82,38.27 119.6,48.51 119.6,59.9 C119.6,76.8 113.5,91.1 102,101.3 C91.4,110.6 77,115.8 61.6,115.8 C43.54,115.8 24.6,108.45 13.42,92.86 C24.18,110.52 44.42,118.8 63.6,118.8 C79,118.8 93.4,113.6 104,104.3 C115.5,94.1 121.6,79.8 121.6,62.9 C121.6,50.16 118.13,38.84 111.49,29.67 Z" fill="#EB8F00"/>
  <path d="M93.7,84.59 C93.795,84.712 93.889,84.835 93.982,84.959 C95.52,87.098 96.787,89.391 97.7,91.802 C98.715,94.57 99.273,97.504 99.33,100.49 C99.33,105.38 93.71,108.24 88.71,106.24 C80.84,103.11 72.47,101.45 64,101.32 C55.53,101.44 47.16,103.1 39.29,106.22 C34.287,108.207 28.685,105.368 28.67,100.49 L28.67,100.47 L28.67,100.469 C28.711,97.544 29.218,94.664 30.155,91.932 C31.035,89.431 32.279,87.055 33.813,84.846 C33.855,84.787 33.897,84.728 33.94,84.67 C43.75,82.12 53.86,80.89 64,81 C74.01,80.9 84,82.11 93.7,84.59 Z" fill="#422B0D"/>
  <path d="M93.7,84.59 C84,82.11 74.01,80.9 64,81 C53.86,80.9 43.75,82.14 33.94,84.69 C40.62,75.21 52.63,68.82 64,68.82 C64.612,68.82 65.23,68.842 65.852,68.884 C75.881,69.572 87.109,75.711 93.7,84.59 Z" fill="#FFFFFF"/>
  <path d="M96.7,119.17 C101.56,117.7 103.35,116 103.12,114.78 C102.82,113.2 96,112.96 88,114.11 L88,83.5 C88,83.5 79.89,81.08 63.5,81.08 C45.31,81.08 39,83.5 39,83.5 L39,111.36 C34,111.07 30.21,111.69 30,113.04 C29.86,114.11 33,115.4 36.92,116.5 C29.34,117.28 24.79,118.5 24.79,119.87 C24.79,122.22 39.23,124.12 56.84,124.12 C63.76,124.16 70.68,123.83 77.56,123.12 C81.38,123.67 85.23,123.92 89.09,123.89 C97.93,123.89 105.09,122.77 105.09,121.39 C105.14,120.42 101.73,119.59 96.7,119.17 Z" fill="url(#SVGID_3_)"/>
  <path d="M112.722,112.229 C112.849,113.081 111.778,113.947 110.331,114.163 C108.883,114.378 107.607,113.862 107.48,113.01 C107.353,112.158 108.424,111.292 109.871,111.077 C111.319,110.861 112.595,111.377 112.722,112.229 Z" fill="#368231"/>
  <path d="M22.764,108.817 C24.699,109.42 25.981,110.831 25.626,111.97 C25.272,113.109 23.415,113.544 21.48,112.942 C19.545,112.339 18.263,110.928 18.618,109.789 C18.972,108.65 20.829,108.215 22.764,108.817 Z" fill="#368231"/>
  <path d="M60.67,110.54 A2.42 4.71 0 1 1 55.83,110.54 A2.42 4.71 0 1 1 60.67,110.54 Z" fill="#368231"/>
  <path d="M65,93.92 A2.25 4.08 0 1 1 60.5,93.92 A2.25 4.08 0 1 1 65,93.92 Z" fill="#368231"/>
  <path d="M80.34,103.83 A3.96 7.25 0 1 1 72.42,103.83 A3.96 7.25 0 1 1 80.34,103.83 Z" fill="#368231"/>
  <path d="M50.09,98.31 A1.88 3.27 0 1 1 46.33,98.31 A1.88 3.27 0 1 1 50.09,98.31 Z" fill="#368231"/>
  <path d="M33.19,60.55 L45.37,58.19 L32.82,53 L32.4,52.77 C30.35,51.69 29.57,49.16 30.65,47.11 C30.91,46.62 31.26,46.19 31.68,45.84 C33.68,44.31 36.42,44.19 38.55,45.54 L59.83,58.54 C60.35,58.73 60.61,59.31 60.42,59.82 C60.29,60.17 59.98,60.42 59.61,60.47 L36.7,69.09 C36.54,69.15 36.38,69.21 36.22,69.25 C33.22,70.09 29.89,68.36 29.42,65.47 C29.07,63.27 30.77,61.22 33.19,60.55 Z" fill="#422B0D"/>
  <path d="M95.81,60.3 L83.63,57.94 L96.18,52.73 L96.6,52.5 C98.65,51.42 99.43,48.89 98.35,46.84 C98.09,46.35 97.74,45.92 97.32,45.57 C95.32,44.04 92.58,43.92 90.45,45.27 L69.17,58.27 C68.65,58.46 68.39,59.04 68.58,59.55 C68.71,59.9 69.02,60.15 69.39,60.2 L92.3,68.8 C92.46,68.86 92.62,68.92 92.78,68.96 C95.78,69.8 99.11,68.07 99.58,65.18 C99.93,63 98.23,61 95.81,60.3 Z" fill="#422B0D"/>
  <path d="M31.4,34.8 C29.2,35.2 29.1,38.4 31.5,38.5 C36.8,38.57 41.92,36.6 45.8,33 C47.28,31.72 48.53,30.2 49.5,28.5 C50.08,27.67 49.88,26.53 49.05,25.95 C48.22,25.37 47.08,25.57 46.5,26.4 L46.4,26.5 C42.48,30.88 37.19,33.81 31.4,34.8 Z" fill="#422B0D"/>
  <path d="M80.5,26.4 C79.92,25.57 78.78,25.37 77.95,25.95 C77.12,26.53 76.92,27.67 77.5,28.5 C78.47,30.2 79.72,31.72 81.2,33 C85.1,36.57 90.21,38.54 95.5,38.5 C98,38.4 97.8,35.2 95.6,34.8 C89.74,33.84 84.41,30.87 80.5,26.4 L80.5,26.4" fill="#422B0D"/>
</svg>

<svg viewBox="0 0 128 128" xmlns="http://www.w3.org/2000/svg" xmlns:xlink="http://www.w3.org/1999/xlink">
  <g id="gold">
    <radialGradient id="face_1_" cx="63.6" cy="2288.8999" gradientTransform="matrix(1 0 0 1 0 -2226)" gradientUnits="userSpaceOnUse" r="56.9597">
      <stop offset="0.5" stop-color="#FDE030"/>
      <stop offset="0.92" stop-color="#F7C02B"/>
      <stop offset="1" stop-color="#F4A223"/>
    </radialGradient>
    <path id="face" d="M63.6,118.8c-27.9,0-58-17.5-58-55.9S35.7,7,63.6,7c15.5,0,29.8,5.1,40.4,14.4 c11.5,10.2,17.6,24.6,17.6,41.5s-6.1,31.2-17.6,41.4C93.4,113.6,79,118.8,63.6,118.8z" fill="url(#face_1_)"/>
    <path d="M111.49,29.67c5.33,8.6,8.11,18.84,8.11,30.23c0,16.9-6.1,31.2-17.6,41.4 c-10.6,9.3-25,14.5-40.4,14.5c-18.06,0-37-7.35-48.18-22.94c10.76,17.66,31,25.94,50.18,25.94c15.4,0,29.8-5.2,40.4-14.5 c11.5-10.2,17.6-24.5,17.6-41.4C121.6,50.16,118.13,38.84,111.49,29.67z" fill="#EB8F00"/>
  </g>
  <g id="facial_expressions">
    <g id="face-with-open-mouth-vomiting">
      <g id="mouth">
        <g>
          <defs>
            <path id="SVGID_1_" d="M64,68.82c-17,0-35.33,14.18-35.33,31.67c0,4.89,5.61,7.74,10.62,5.75c7.87-3.13,16.24-4.79,24.71-4.92 c8.47,0.13,16.84,1.79,24.71,4.92c5,2,10.62-0.86,10.62-5.75C99.33,83,79.66,68.82,64,68.82z"/>
          </defs>
          <clipPath id="SVGID_2_">
            <use overflow="visible" xlink:href="#SVGID_1_"/>
          </clipPath>
          <g clip-path="url(#SVGID_2_)">
            <path d="M93.7,84.59C84,82.11,74.01,80.9,64,81c-10.14-0.11-20.25,1.12-30.06,3.67 c-3.35,4.59-5.19,10.11-5.27,15.8c0,4.89,5.61,7.74,10.62,5.75c7.87-3.12,16.24-4.78,24.71-4.9 c8.47,0.13,16.84,1.79,24.71,4.92c5,2,10.62-0.86,10.62-5.75C99.22,94.72,97.24,89.14,93.7,84.59z" fill="#422B0D"/>
            <path d="M93.7,84.59c-7-9.43-19.23-15.77-29.7-15.77c-11.37,0-23.38,6.39-30.06,15.87 C43.75,82.14,53.86,80.9,64,81C74.01,80.9,84,82.11,93.7,84.59z" fill="#FFFFFF"/>
          </g>
        </g>
        <linearGradient id="SVGID_3_" gradientTransform="matrix(1 0 0 -1 0 130)" gradientUnits="userSpaceOnUse" x1="64.9403" x2="64.9403" y1="48.64" y2="4.54">
          <stop offset="0" stop-color="#469643"/>
          <stop offset="0.02" stop-color="#489743"/>
          <stop offset="0.44" stop-color="#6DB141"/>
          <stop offset="0.78" stop-color="#84C03F"/>
          <stop offset="1" stop-color="#8CC63F"/>
        </linearGradient>
        <path d="M96.7,119.17c4.86-1.47,6.65-3.17,6.42-4.39c-0.3-1.58-7.12-1.82-15.12-0.67V83.5 c0,0-8.11-2.42-24.5-2.42C45.31,81.08,39,83.5,39,83.5v27.86c-5-0.29-8.79,0.33-9,1.68c-0.14,1.07,3,2.36,6.92,3.46 c-7.58,0.78-12.13,2-12.13,3.37c0,2.35,14.44,4.25,32.05,4.25c6.92,0.04,13.84-0.29,20.72-1c3.82,0.55,7.67,0.8,11.53,0.77 c8.84,0,16-1.12,16-2.5C105.14,120.42,101.73,119.59,96.7,119.17z" fill="url(#SVGID_3_)"/>
        <ellipse cx="110.1" cy="112.62" fill="#368231" rx="2.65" ry="1.56" transform="matrix(0.9891 -0.1473 0.1473 0.9891 -15.3879 17.4448)"/>
        <ellipse cx="22.13" cy="110.88" fill="#368231" rx="2.16" ry="3.67" transform="matrix(0.2972 -0.9548 0.9548 0.2972 -90.3233 99.0557)"/>
        <ellipse cx="58.25" cy="110.54" fill="#368231" rx="2.42" ry="4.71"/>
        <ellipse cx="62.75" cy="93.92" fill="#368231" rx="2.25" ry="4.08"/>
        <ellipse cx="76.38" cy="103.83" fill="#368231" rx="3.96" ry="7.25"/>
        <ellipse cx="48.21" cy="98.31" fill="#368231" rx="1.88" ry="3.27"/>
      </g>
      <g id="eyes">
        <g id="peepers">
          <path d="M33.19,60.55l12.18-2.36L32.82,53l-0.42-0.23c-2.05-1.08-2.83-3.61-1.75-5.66 c0.26-0.49,0.61-0.92,1.03-1.27c2-1.53,4.74-1.65,6.87-0.3l21.28,13c0.52,0.19,0.78,0.77,0.59,1.28 c-0.13,0.35-0.44,0.6-0.81,0.65L36.7,69.09c-0.16,0.06-0.32,0.12-0.48,0.16c-3,0.84-6.33-0.89-6.8-3.78 C29.07,63.27,30.77,61.22,33.19,60.55z" fill="#422B0D"/>
          <path d="M95.81,60.3l-12.18-2.36l12.55-5.21l0.42-0.23c2.05-1.08,2.83-3.61,1.75-5.66 c-0.26-0.49-0.61-0.92-1.03-1.27c-2-1.53-4.74-1.65-6.87-0.3l-21.28,13c-0.52,0.19-0.78,0.77-0.59,1.28 c0.13,0.35,0.44,0.6,0.81,0.65l22.91,8.6c0.16,0.06,0.32,0.12,0.48,0.16c3,0.84,6.33-0.89,6.8-3.78 C99.93,63,98.23,61,95.81,60.3z" fill="#422B0D"/>
        </g>
      </g>
    </g>
    <g id="eyebrows">
      <path d="M31.4,34.8c-2.2,0.4-2.3,3.6,0.1,3.7c5.3,0.07,10.42-1.9,14.3-5.5c1.48-1.28,2.73-2.8,3.7-4.5 c0.58-0.83,0.38-1.97-0.45-2.55c-0.83-0.58-1.97-0.38-2.55,0.45l-0.1,0.1C42.48,30.88,37.19,33.81,31.4,34.8z" fill="#422B0D"/>
      <path d="M80.5,26.4c-0.58-0.83-1.72-1.03-2.55-0.45c-0.83,0.58-1.03,1.72-0.45,2.55 c0.97,1.7,2.22,3.22,3.7,4.5c3.9,3.57,9.01,5.54,14.3,5.5c2.5-0.1,2.3-3.3,0.1-3.7C89.74,33.84,84.41,30.87,80.5,26.4L80.5,26.4" fill="#422B0D"/>
    </g>
  </g>
</svg>
